X: 30566
T: Once In A Blue Moose
R: reel
M: 4/4
K: Gmajor
GA|:B2eB dBAB|G2EG DEGA|B~G3 dGB/c/d|eddB BAGA|
B2eB dBAB|G2EG DEGA|B~G3 eGdB|1 ABBA G3A:|2 ABBA GAB/c/d||
~e3f fggf|fedB BAGA|B~G3 dGB/c/d|eddB BAB/c/d|
~e3f fggf|fedB BAGA|B~G3 eGdB|ABBA GAB/c/d|
~e3f fggf|fedB BAGA|B~G3 dGB/c/d|e2dB BAGA|
B2eB dBAB|G2EG DEGA|B~G3 eGdB|ABBA G3A||

